Obsidian-SemiLight/actions/22s/align-horizontal-baseline.svg

<svg viewBox="0 0 22 22" xmlns="http://www.w3.org/2000/svg"><path d="m7 3v14.460938c-.3287585.068788-.6271097.141073-1 .205078l.2773438 1.333984c.2493276-.042789.4846855-.096456.7226562-.148438v.148438h1v-.402344c4.814903-1.400563 7-4.744156 7-7.597656h-1.476562c0 .9235-.466475 2.705978-1.265626 3.392578-.815789-.7731-1.799919-1.968194-2.037109-3.371094l-1.189453-.021484c0 1.8985 1.341099 3.470647 2.349609 4.435547-.862214.875815-1.8774294 1.403298-3.380859 1.804687v-14.240234zm5.136719 0c-1.172738.0254798-2.073961.2175457-2.7285159.4980469l.3691407 1.2617187c.3136372-.1020589 1.4998512-.4589844 2.1953122-.4589844h.095703c.968193.03822 1.03711.3687222 1.03711 1.1464844v.3066406l-.50586.0761719c-2.345489.3187628-3.599609.5864822-3.599609 2.2695313 0 1.1730343.9135768 1.9003906 2.236328 1.9003906.913646 0 1.513319-.3572897 2.126953-.8417969l.191407.7148438h1.445312v-4.71875c0-1.4407816-1.06283-2.1542969-2.699219-2.1542969zm.96875 3.7480469v1.5683593c-.504542.3187629-.88646.5488282-1.541016.5488282-.586368 0-.873047-.3436179-.873047-.828125 0-.9180269.858184-1.07264 1.908203-1.2128906z" fill="#4d4d4d"/></svg>

<svg xmlns="http://www.w3.org/2000/svg" viewBox="0 0 22 22">
  <defs id="defs3051">
    <style type="text/css" id="current-color-scheme">
      .ColorScheme-Text {
        color:#4d4d4d;
      }
      </style>
  </defs>
 <path 
     style="fill:currentColor;fill-opacity:1;stroke:none" 
    d="M 7 3 L 7 17.460938 C 6.6712415 17.529726 6.3728903 17.602011 6 17.666016 L 6.2773438 19 C 6.5266714 18.957211 6.7620293 18.903544 7 18.851562 L 7 19 L 8 19 L 8 18.597656 C 12.814903 17.197093 15 13.8535 15 11 L 13.523438 11 C 13.523438 11.9235 13.056963 13.705978 12.257812 14.392578 C 11.442023 13.619478 10.457893 12.424384 10.220703 11.021484 L 9.03125 11 C 9.03125 12.8985 10.372349 14.470647 11.380859 15.435547 C 10.518645 16.311362 9.5034296 16.838845 8 17.240234 L 8 3 L 7 3 z M 12.136719 3 C 10.963981 3.0254798 10.062758 3.2175457 9.4082031 3.4980469 L 9.7773438 4.7597656 C 10.090981 4.6577067 11.277195 4.3007812 11.972656 4.3007812 L 12.068359 4.3007812 C 13.036552 4.3390012 13.105469 4.6695034 13.105469 5.4472656 L 13.105469 5.7539062 L 12.599609 5.8300781 C 10.25412 6.1488409 9 6.4165603 9 8.0996094 C 9 9.2726437 9.9135768 10 11.236328 10 C 12.149974 10 12.749647 9.6427103 13.363281 9.1582031 L 13.554688 9.8730469 L 15 9.8730469 L 15 5.1542969 C 15 3.7135153 13.93717 3 12.300781 3 L 12.136719 3 z M 13.105469 6.7480469 L 13.105469 8.3164062 C 12.600927 8.6351691 12.219009 8.8652344 11.564453 8.8652344 C 10.978085 8.8652344 10.691406 8.5216165 10.691406 8.0371094 C 10.691406 7.1190825 11.54959 6.9644694 12.599609 6.8242188 L 13.105469 6.7480469 z "
	 class="ColorScheme-Text"
     />
</svg>
